X: 4129
M: C
L: 1/8
K: G
[|\
g>da>d b>gd>f | g>ec>e d>B (3(GBd) |
g>da>d b>d c'2 | b>g (3(agf) g2 (3(def) |\
g>da>d b>gd>g | e>dc>B A>GE>G |\
(3efg (3fga g2 (3(gfe) | d>cA>c (B<G) G2 |]


